X: 2
T: The Otter's Holt
R: reel
M: 4/4
L: 1/8
Q:1/2=80
K: Bmin
e|:"Bm"fBBA FEFB|"Bm"(3ABA FB "A"ABde|"G"fBBA FEFA|
"A"(3Bcd cA Bcde|"G"fBBA FEFB|"Bm"(3ABA FB "A"ABde|
"Bm"faaf "G"effe|1 "A"dBBA ~B3e:|2 "A"dBAF B3c|
|:"D"d2fd Adfa|"D"bfaf "G"effe|"D"d2fd Adfa|"G"bfaf "A"~e3f|
"D"~d2fd Adfa|"A"bfaf efde|"G"fBBA FEFA|1"A"(3Bcd cA ~B3c:|2"A"(3Bcd cA "Bm"~B3c|]
